brandFactory_export/1.Light/Urgencia urgente sirena _1Light.svg

<?xml version="1.0" encoding="UTF-8"?>
<svg width="24px" height="24px" viewBox="0 0 24 24" version="1.1" xmlns="http://www.w3.org/2000/svg" xmlns:xlink="http://www.w3.org/1999/xlink">
    <title>1.Light/Urgencia urgente sirena _1Light</title>
    <g id="Symbols" stroke="none" stroke-width="1" fill="none" fill-rule="evenodd">
        <g id="1.Light/Urgencia-urgente-sirena-_1Light" fill="#5CB615" fill-rule="nonzero">
            <path d="M19.8689076,22.6319328 C20.1042017,22.6319328 20.3092437,22.4806723 20.3361345,22.4134454 L20.3327731,19.902521 C20.3092437,19.8621849 20.107563,19.7109244 19.8722689,19.7109244 L3.91932773,19.7109244 C3.67058824,19.7109244 3.48571429,19.8521008 3.45882353,19.912605 L3.45882353,22.4403361 C3.47563025,22.4840336 3.66386555,22.6319328 3.91932773,22.6319328 L19.8689076,22.6319328 Z M5.34117647,11.4554622 L5.34117647,18.6890756 L18.4504202,18.6890756 L18.4504202,11.4554622 C18.4504202,7.08571429 16.2420168,4.87058824 11.8957983,4.87058824 C7.54285714,4.87058824 5.34117647,7.08235294 5.34117647,11.4554622 Z M19.8722689,18.7193277 C20.6453782,18.7193277 21.3210084,19.2705882 21.3210084,19.902521 L21.3210084,22.4403361 C21.3210084,23.0689076 20.6420168,23.6235294 19.8722689,23.6235294 L3.91932773,23.6235294 C3.13277311,23.6235294 2.47058824,23.0823529 2.47058824,22.4403361 L2.47058824,19.902521 C2.47058824,19.2605042 3.13613445,18.7193277 3.91932773,18.7193277 L4.35294118,18.7193277 L4.35294118,11.4521008 C4.35294118,6.49411765 6.96134454,3.87563025 11.892437,3.87563025 C16.8268908,3.87563025 19.4386555,6.49411765 19.4386555,11.4521008 L19.4386555,18.7159664 L19.8722689,18.7159664 L19.8722689,18.7193277 L19.8722689,18.7193277 Z M11.8957983,2.79327731 C11.6235294,2.79327731 11.4016807,2.57142857 11.4016807,2.29579832 L11.4016807,0.494117647 C11.4016807,0.221848739 11.6235294,0 11.8957983,0 C12.1680672,0 12.389916,0.221848739 12.389916,0.494117647 L12.389916,2.29915966 C12.389916,2.57142857 12.1680672,2.79327731 11.8957983,2.79327731 C11.8957983,2.79663866 11.8957983,2.79663866 11.8957983,2.79327731 L11.8957983,2.79327731 Z M2.81680672,8.83361345 C2.81680672,9.10588235 2.59495798,9.32773109 2.32268908,9.33109244 L0.524369748,9.33109244 C0.25210084,9.33109244 0.0302521008,9.1092437 0.0302521008,8.83697479 L0.0302521008,8.83361345 C0.0302521008,8.55798319 0.25210084,8.33613445 0.524369748,8.33613445 L2.31932773,8.33613445 C2.59495798,8.33613445 2.81680672,8.55798319 2.81680672,8.83361345 Z M23.1630252,8.3697479 C23.4352941,8.3697479 23.6571429,8.59159664 23.6571429,8.86386555 C23.6571429,9.13613445 23.4352941,9.35798319 23.1630252,9.35798319 L21.3647059,9.35798319 C21.092437,9.35798319 20.8705882,9.13613445 20.8705882,8.86386555 L20.8705882,8.8605042 C20.8705882,8.58823529 21.092437,8.36302521 21.3647059,8.36302521 L23.1630252,8.3697479 L23.1630252,8.3697479 Z M4.26554622,4.23865546 L2.99495798,2.96134454 C2.80336134,2.76638655 2.80336134,2.45378151 2.99495798,2.25882353 C3.18655462,2.06722689 3.49915966,2.06386555 3.6907563,2.25546218 L3.69411765,2.25882353 L4.96470588,3.53613445 C5.15630252,3.73109244 5.15294118,4.04705882 4.95798319,4.24201681 C4.86722689,4.33277311 4.74621849,4.38319328 4.61848739,4.38319328 C4.48067227,4.38319328 4.35630252,4.32941176 4.26554622,4.23865546 L4.26554622,4.23865546 Z M18.2084034,4.23529729 C17.9361345,4.23529729 17.7109244,4.01680672 17.7109244,3.74117647 C17.7109244,3.61008403 17.7647059,3.48235294 17.8588235,3.38823529 L19.1294118,2.11092437 C19.3210084,1.91932773 19.6336134,1.91596639 19.8252101,2.10756303 L19.8285714,2.11092437 C20.0201681,2.30588235 20.0201681,2.61848739 19.8285714,2.81344538 L18.5579832,4.0907563 C18.4654532,4.18371441 18.3395628,4.23576524 18.2084034,4.23529729 L18.2084034,4.23529729 Z M14.8840336,12.5647059 L14.8840336,11.4184874 L12.9277311,11.4184874 C12.6554622,11.4184874 12.4336134,11.1966387 12.4336134,10.9243697 L12.4336134,8.95798319 L11.287395,8.95798319 L11.287395,10.9243697 C11.287395,11.1966387 11.0689076,11.4184874 10.7966387,11.4218487 L8.84033613,11.4218487 L8.84033613,12.5714286 L10.7966387,12.5714286 C11.0689076,12.5714286 11.2907563,12.7932773 11.2907563,13.0655462 L11.2907563,15.0319328 L12.4369748,15.0319328 L12.4369748,13.0655462 C12.4369748,12.7932773 12.6554622,12.5680672 12.9310924,12.5680672 L14.8840336,12.5647059 L14.8840336,12.5647059 Z M15.005042,10.4268908 C15.4689076,10.4268908 15.8722689,10.7966387 15.8722689,11.2201681 L15.8722689,12.7663866 C15.8722689,13.189916 15.4655462,13.5596639 15.005042,13.5596639 L13.4218487,13.5596639 L13.4218487,15.1529412 C13.4218487,15.6268908 13.0588235,16.0235294 12.6319328,16.0235294 L11.092437,16.0235294 C10.6655462,16.0235294 10.302521,15.6235294 10.302521,15.1529412 L10.302521,13.5630252 L8.71932773,13.5630252 C8.2487395,13.5630252 7.85210084,13.2 7.85210084,12.7697479 L7.85210084,11.2235294 C7.85210084,10.7932773 8.2487395,10.4302521 8.71932773,10.4302521 L10.302521,10.4302521 L10.302521,8.83697479 C10.302521,8.37310924 10.6722689,7.96638655 11.092437,7.96638655 L12.6319328,7.96638655 C13.0521008,7.96638655 13.4218487,8.37310924 13.4218487,8.83697479 L13.4218487,10.4268908 L15.005042,10.4268908 L15.005042,10.4268908 Z" id="Urgencia-urgente-sirena-_1Light"></path>
        </g>
    </g>
</svg>

<svg width="24" height="24" viewBox="0 0 24 24" xmlns="http://www.w3.org/2000/svg"><path d="M19.869 22.632c.235 0 .44-.151.467-.219l-.003-2.51c-.024-.04-.225-.192-.46-.192H3.918c-.248 0-.433.141-.46.202v2.527c.017.044.205.192.46.192h15.95zM5.34 11.455v7.234h13.11v-7.234c0-4.37-2.209-6.584-6.555-6.584-4.353 0-6.555 2.211-6.555 6.584zm14.531 7.264c.773 0 1.449.552 1.449 1.184v2.537c0 .629-.679 1.184-1.449 1.184H3.92c-.786 0-1.448-.542-1.448-1.184v-2.537c0-.642.665-1.184 1.448-1.184h.434v-7.267c0-4.958 2.608-7.576 7.54-7.576 4.934 0 7.546 2.618 7.546 7.576v7.264h.433v.003zM11.896 2.793a.496.496 0 01-.494-.497V.494a.495.495 0 01.988 0V2.3a.495.495 0 01-.494.494c0 .004 0 .004 0 0zm-9.08 6.04a.5.5 0 01-.493.498H.524a.495.495 0 01-.494-.494v-.003c0-.276.222-.498.494-.498H2.32c.276 0 .498.222.498.498zm20.347-.463a.495.495 0 010 .988h-1.798a.495.495 0 01-.494-.494V8.86c0-.273.221-.498.494-.498l1.798.007zM4.266 4.239L2.995 2.96a.501.501 0 010-.702.493.493 0 01.696-.004l.003.004 1.27 1.277a.502.502 0 01-.006.706.495.495 0 01-.692-.003zm13.942-.004a.496.496 0 01-.35-.847l1.271-1.277a.493.493 0 01.696-.003l.004.003a.501.501 0 010 .702l-1.271 1.278a.49.49 0 01-.35.144zm-3.324 8.33v-1.147h-1.956a.495.495 0 01-.494-.494V8.958h-1.147v1.966a.497.497 0 01-.49.498H8.84v1.15h1.957c.272 0 .494.221.494.494v1.966h1.146v-1.966c0-.273.218-.498.494-.498l1.953-.003zm.121-2.138c.464 0 .867.37.867.793v1.546c0 .424-.406.794-.867.794h-1.583v1.593c0 .474-.363.87-.79.87h-1.54c-.426 0-.79-.4-.79-.87v-1.59H8.72c-.47 0-.867-.363-.867-.793v-1.546c0-.43.397-.794.867-.794h1.584V8.837c0-.464.37-.87.79-.87h1.539c.42 0 .79.406.79.87v1.59h1.583z" fill="#5CB615" fill-rule="nonzero"/></svg>
